X: 1
T: Black Watch   [Bm]
%P: piffero primo a0061
C: Bill Krug
F: http://ancients.sudburymuster.org/mus/med/pdf/jeffblackwC1.pdf
Z: 2019 John Chambers <jc:trillian.mit.edu>
M: 2/4
L: 1/16
K: Bm
Bc |\
"Bm"d2B2 B2B2 | F2B2 BcdB | "A"c2A2 A2A2 | ABcd e2dc |\
"Bm"d2B2 B2B2 | F2B2 B2de | "F#7"f3g Tf2e2 | "Bm"d2B2 B2  :|
|: z2 |\
"D"f2fg a2f2 | "A"ecAc e2c2 | "D"d3e Tf2e2 | dcBA "Bm"B2de |\
"D"f3g  a2f2 | "A"ecAc e2de | "F#7"f3g Tf2e2 | "Bm"d2B2 B2  :|
